src/2-landmarks/seat.svg

<svg width="1300" height="1000" fill="none" xmlns="http://www.w3.org/2000/svg"><path fill-rule="evenodd" clip-rule="evenodd" d="M619 660v-10c0-11.046-8.954-20-20-20H107c-11.046 0-20 8.954-20 20v10H77c-11.046 0-20 8.954-20 20v20c0 11.046 8.954 20 20 20h10v180H0v100h1300V900H620V720h10c11.046 0 20-8.954 20-20v-20c0-11.046-8.954-20-20-20h-11Zm-540 7c-8.284 0-15 6.716-15 15v16c0 8.284 6.716 15 15 15h256c8.284 0 15-6.716 15-15v-16c0-8.284-6.716-15-15-15H79Zm15-15v8h243c6.85 0 12.895 3.444 16.5 8.694 3.605-5.25 9.65-8.694 16.5-8.694h242v-8c0-8.284-6.716-15-15-15H109c-8.284 0-15 6.716-15 15Zm278 15c-8.284 0-15 6.716-15 15v16c0 8.284 6.716 15 15 15h256c8.284 0 15-6.716 15-15v-16c0-8.284-6.716-15-15-15H372Zm-35 53c6.85 0 12.895-3.444 16.5-8.694 3.605 5.25 9.65 8.694 16.5 8.694h243v180H94V720h243Z" fill="#000"/></svg>

<svg width="1300" height="1000" viewBox="0 0 1300 1000" fill="none" xmlns="http://www.w3.org/2000/svg">
<path fill-rule="evenodd" clip-rule="evenodd" d="M619 660V650C619 638.954 610.046 630 599 630H107C95.9543 630 87 638.954 87 650V660H77C65.9543 660 57 668.954 57 680V700C57 711.046 65.9543 720 77 720H87V900H0V1000H1300V900H620V720H630C641.046 720 650 711.046 650 700V680C650 668.954 641.046 660 630 660H619ZM79 667C70.7157 667 64 673.716 64 682V698C64 706.284 70.7157 713 79 713H335C343.284 713 350 706.284 350 698V682C350 673.716 343.284 667 335 667H79ZM94 652V660H337C343.85 660 349.895 663.444 353.5 668.694C357.105 663.444 363.15 660 370 660H612V652C612 643.716 605.284 637 597 637H109C100.716 637 94 643.716 94 652ZM372 667C363.716 667 357 673.716 357 682V698C357 706.284 363.716 713 372 713H628C636.284 713 643 706.284 643 698V682C643 673.716 636.284 667 628 667H372ZM337 720C343.85 720 349.895 716.556 353.5 711.306C357.105 716.556 363.15 720 370 720H613V900H94V720H337Z" fill="black"/>
</svg>
